mp/locksmith.svg

<svg version="1.2" baseProfile="tiny" xmlns="http://www.w3.org/2000/svg" viewBox="0 0 50 50" overflow="inherit" height="1em" width="1em">
  <path d="M43.16 21h-2.16v-8.632c0-5.678-5.696-11.368-11.374-11.368h-9.481c-5.675 0-11.145 5.69-11.145 11.368v8.632h-2.39c-.677 0-1.61 1.062-1.61 1.66v25.458c0 .598.933.882 1.61.882h36.55c.679 0 1.84-.284 1.84-.882v-25.458c0-.598-1.161-1.66-1.84-1.66zm-13.447 24h-9.651l2.025-9.967c-1.224-.867-2.025-2.501-2.025-4.105 0-2.643 2.161-4.894 4.825-4.894s4.826 2.089 4.826 4.73c0 1.605-.801 3.429-2.023 4.297l2.023 9.939zm4.287-24h-18v-8.632c0-2.578 1.693-4.368 4.241-4.368h9.289c2.548 0 4.47 1.79 4.47 4.368v8.632z"/>
</svg>

<svg version="1.2" baseProfile="tiny" xmlns="http://www.w3.org/2000/svg" viewBox="0 0 50 50" overflow="inherit" height="1em" width="1em">
  <path d="M43.16 21H41v-8.632C41 6.69 35.304 1 29.626 1h-9.481C14.47 1 9 6.69 9 12.368V21H6.61C5.933 21 5 22.062 5 22.66v25.458c0 .598.933.882 1.61.882h36.55c.679 0 1.84-.284 1.84-.882V22.66c0-.598-1.161-1.66-1.84-1.66zM29.713 45h-9.651l2.025-9.967c-1.224-.867-2.025-2.501-2.025-4.105 0-2.643 2.161-4.894 4.825-4.894s4.826 2.089 4.826 4.73c0 1.605-.801 3.429-2.023 4.297L29.713 45zM34 21H16v-8.632C16 9.79 17.693 8 20.241 8h9.289C32.078 8 34 9.79 34 12.368V21z"/>
</svg>
